src/icons/svg/index.svg

<svg class="icon" viewBox="0 0 1024 1024" xmlns="http://www.w3.org/2000/svg" width="128" height="128"><defs><style/></defs><path d="M805.695 973.009c-1.963 0-3.541-.054-4.672-.111H203.268c-40.042 0-63.091-16.865-75.375-31.013-26.919-31.003-24.757-73.037-23.543-84.7v-359.53h64v363.913l-.302 1.883c-.761 6.401-.833 26.277 8.289 36.609 1.93 2.186 7.803 8.838 26.932 8.838h600.308l.75.082c2.153.076 22.315.434 34.996-11.557 8.454-7.994 12.74-21.212 12.74-39.288V497.379h64v360.756c0 45.871-18.247 72.371-33.555 86.525-27.534 25.46-62.416 28.348-76.813 28.349zM136.349 527.688H38a32 32 0 01-21.242-55.933l472.219-419.09c12.02-10.668 30.087-10.766 42.223-.227l478.781 415.791a32 32 0 01-20.065 56.148l-104.938 3.012c-.313.01-.624.014-.936.014-17.247 0-31.471-13.729-31.97-31.082-.507-17.666 13.403-32.398 31.069-32.905l22.931-.658-395.624-343.579-388.182 344.509h14.083c17.673 0 32 14.327 32 32s-14.327 32-32 32zM403 941.201c-14.912 0-27-12.088-27-27V688.355c.002-4.866 1.234-24.9 20.021-43.995 22.8-23.173 61.458-34.923 114.901-34.923 52.638 0 90.876 11.911 113.652 35.403 19.225 19.828 20.464 40.706 20.426 46.244v222.25c0 14.912-12.088 27-27 27s-27-12.088-27-27V691.402c-.179-1.167-1.308-6.104-8.017-11.541-7.569-6.134-26.997-16.424-72.062-16.424-52.272 0-70.848 13.145-76.408 18.795-2.73 2.775-3.876 5.136-4.357 6.627a7.885 7.885 0 00-.157.549v224.793c.001 14.912-12.087 27-26.999 27zM410 726l-9 206-238-13-17-254 5-166-71-23L509 87l423 369-43 41-18 370-17 57-224 8-4-149-14-100-28-23-55-9-68 6-42 6z"/></svg>

<?xml version="1.0" standalone="no"?><!DOCTYPE svg PUBLIC "-//W3C//DTD SVG 1.1//EN" "http://www.w3.org/Graphics/SVG/1.1/DTD/svg11.dtd"><svg t="1587113743156" class="icon" viewBox="0 0 1024 1024" version="1.1" xmlns="http://www.w3.org/2000/svg" p-id="4387" xmlns:xlink="http://www.w3.org/1999/xlink" width="128" height="128"><defs><style type="text/css"></style></defs><path d="M805.695 973.009c-1.963 0-3.541-0.054-4.672-0.111L203.268 972.898c-40.042 0-63.091-16.865-75.375-31.013-26.919-31.003-24.757-73.037-23.543-84.7l0-359.53 64 0 0 363.913-0.302 1.883c-0.761 6.401-0.833 26.277 8.289 36.609 1.93 2.186 7.803 8.838 26.932 8.838l600.308 0 0.75 0.082c2.153 0.076 22.315 0.434 34.996-11.557 8.454-7.994 12.74-21.212 12.74-39.288L852.063 497.379l64 0 0 360.756c0 45.871-18.247 72.371-33.555 86.525C854.974 970.12 820.092 973.008 805.695 973.009zM136.349 527.688 38 527.688c-13.291 0-25.197-8.214-29.916-20.639-4.718-12.425-1.266-26.472 8.674-35.294l472.219-419.09c12.02-10.668 30.087-10.766 42.223-0.227l478.781 415.791c9.955 8.646 13.588 22.513 9.151 34.929s-16.035 20.84-29.216 21.219l-104.938 3.012c-0.313 0.01-0.624 0.014-0.936 0.014-17.247 0-31.471-13.729-31.97-31.082-0.507-17.666 13.403-32.398 31.069-32.905l22.931-0.658L510.448 119.179 122.266 463.688l14.083 0c17.673 0 32 14.327 32 32S154.022 527.688 136.349 527.688zM403 941.201c-14.912 0-27-12.088-27-27L376 688.355c0.002-4.866 1.234-24.9 20.021-43.995 22.8-23.173 61.458-34.923 114.901-34.923 52.638 0 90.876 11.911 113.652 35.403 19.225 19.828 20.464 40.706 20.426 46.244l0 222.25c0 14.912-12.088 27-27 27s-27-12.088-27-27L591 691.402c-0.179-1.167-1.308-6.104-8.017-11.541-7.569-6.134-26.997-16.424-72.062-16.424-52.272 0-70.848 13.145-76.408 18.795-2.73 2.775-3.876 5.136-4.357 6.627-0.073 0.225-0.123 0.411-0.157 0.549l0 224.793C430 929.113 417.912 941.201 403 941.201zM410 726 401 932 163 919 146 665 151 499 80 476 509 87 932 456 889 497 871 867 854 924 630 932 626 783 612 683 584 660 529 651 461 657 419 663Z" p-id="4388"></path></svg>
